X: 36782
T: Shepherd's Lamb, The
R: polka
M: 2/4
K: Gmajor
BG GA|Bc dB|ec dB|ce dc|
BG GA|Bc dB|ec dB|cd/c/ BA:|
GA/G/ FD|EC CE|DE FD|GB dB|
GA/G/ FD|EC CE|DE FD|G2 d>c:|

